src/images/svg/icon-tools.svg

<svg fill="none" height="26" viewBox="0 0 27 26" width="27" xmlns="http://www.w3.org/2000/svg"><path d="m15.0381 15.0674 2.1094 2.1094" stroke="#1b1b1b" stroke-linecap="round" stroke-width=".6"/><path d="m9.83496 9.97241 2.10934 2.10939" stroke="#1b1b1b" stroke-linecap="round" stroke-width=".6"/><g fill="#1b1b1b"><path clip-rule="evenodd" d="m21.8335 4.38501 1.2154 1.21534-7.5992 7.59915.7189.6953 7.5874-7.58734c.3905-.39053.3905-1.02369 0-1.41422l-1.2154-1.21534c-.3905-.39052-1.0237-.39052-1.4142 0l-7.6313 7.6313.7189.6953zm-10.0212 10.02119-.7128-.7014-7.50093 7.5009c-.39052.3906-.39052 1.0237 0 1.4143l1.21534 1.2153c.39052.3905 1.02369.3905 1.41421 0l7.52208-7.5221-.7128-.7014-7.51638 7.5164-1.21534-1.2153z" fill-rule="evenodd"/><path clip-rule="evenodd" d="m6.80898 2.81942c.14012.01545.28081.03871.42158.0701 2.08039.46383 3.39084 2.52634 2.92704 4.60673-.0897.40217-.23908.77557-.43681 1.11293l.73721.70866c.3117-.4762.5445-1.01564.6756-1.60397.5841-2.61945-1.066-5.21637-3.68543-5.80039-.63148-.14079-1.26165-.15174-1.86262-.05058.50668.19315.92729.53214 1.22343.95652zm-4.80491 1.74383c-.1543.3241-.27485.67048-.35628 1.0357-.58402 2.61944 1.06602 5.21635 3.68546 5.80035 1.42889.3186 2.85108-.0276 3.94349-.8333l-.68858-.73688c-.85423.59138-1.94329.83808-3.0373.59418-2.0185-.45005-3.31222-2.40505-2.96375-4.42117-.32932-.40579-.53681-.9061-.58304-1.43888z" fill-rule="evenodd"/><path clip-rule="evenodd" d="m3.08619 5.01404c.19983.55051.66788.99044 1.28187 1.12734.95597.21314 1.90372-.38905 2.11686-1.34502.15687-.70357-.1279-1.40269-.6703-1.80778.00034-.00038.00069-.00076.00103-.00114-.61868-.47412-.44413-1.05956-.23181-1.13228l.18856-.02484c1.2493.49135 1.98986 1.83225 1.68856 3.18365-.33333 1.49502-1.81549 2.43677-3.31051 2.10344-1.22987-.2742-2.08531-1.32588-2.16449-2.52259l.00431.00507c.17376-.29831.81906-.14696 1.09592.41415z" fill-rule="evenodd"/><path clip-rule="evenodd" d="m20.1051 24.0718c-.1404-.0132-.2814-.0342-.4227-.0633-2.0877-.4299-3.4315-2.4709-3.0015-4.5585.0831-.4036.2264-.7794.4186-1.1199l-.7486-.6966c-.304.4812-.5279 1.0244-.6495 1.6148-.5414 2.6285 1.1507 5.1983 3.7793 5.7397.6337.1305 1.2639.1312 1.8632.0203-.5098-.1849-.9359-.517-1.2388-.9365zm4.7759-1.8217c.149-.3266.2639-.6749.3394-1.0414.5413-2.6286-1.1507-5.1983-3.7793-5.7397-1.4339-.2953-2.8502.074-3.9294.8973l.7005.7256c.8445-.6051 1.9294-.8696 3.0272-.6435 2.0256.4172 3.3509 2.3509 3.0352 4.3724.3359.4004.5515.8973.6064 1.4293z" fill-rule="evenodd"/><path clip-rule="evenodd" d="m23.7913 21.8169c-.2088-.5472-.6839-.9795-1.3-1.1064-.9593-.1975-1.8972.42-2.0947 1.3793-.1455.706.1506 1.4004.6995 1.7966-.0003.0004-.0006.0008-.001.0012.6263.464.4613 1.0522.2502 1.1283l-.1881.0279c-1.2571-.4709-2.0194-1.7996-1.7401-3.1557.309-1.5003 1.7756-2.466 3.2759-2.157 1.2341.2542 2.1066 1.2918 2.2052 2.4871l-.0044-.005c-.1689.3011-.8166.1602-1.1025-.3963z" fill-rule="evenodd"/><path clip-rule="evenodd" d="m8.13866 10.8477 8.40734 8.4073.4891-.9251-8.10877-8.1088zm1.84056-2.00437 8.11238 8.11237 1.071-.3432-8.6274-8.62737z" fill-rule="evenodd"/><circle cx="8.86095" cy="8.94786" r=".333604"/><circle cx="18.1656" cy="18.1275" r=".333604"/></g></svg>

<svg width="27" height="26" viewBox="0 0 27 26" fill="none" xmlns="http://www.w3.org/2000/svg">
<path d="M15.0381 15.0674L17.1475 17.1768" stroke="#1B1B1B" stroke-width="0.6" stroke-linecap="round"/>
<path d="M9.83496 9.97241L11.9443 12.0818" stroke="#1B1B1B" stroke-width="0.6" stroke-linecap="round"/>
<path fill-rule="evenodd" clip-rule="evenodd" d="M21.8335 4.38501L23.0489 5.60035L15.4497 13.1995L16.1686 13.8948L23.756 6.30746C24.1465 5.91693 24.1465 5.28377 23.756 4.89324L22.5406 3.6779C22.1501 3.28738 21.5169 3.28738 21.1264 3.6779L13.4951 11.3092L14.214 12.0045L21.8335 4.38501ZM11.8123 14.4062L11.0995 13.7048L3.59857 21.2057C3.20805 21.5963 3.20805 22.2294 3.59857 22.62L4.81391 23.8353C5.20443 24.2258 5.8376 24.2258 6.22812 23.8353L13.7502 16.3132L13.0374 15.6118L5.52102 23.1282L4.30568 21.9129L11.8123 14.4062Z" fill="#1B1B1B"/>
<path fill-rule="evenodd" clip-rule="evenodd" d="M6.80898 2.81942C6.9491 2.83487 7.08979 2.85813 7.23056 2.88952C9.31095 3.35335 10.6214 5.41586 10.1576 7.49625C10.0679 7.89842 9.91852 8.27182 9.72079 8.60918L10.458 9.31784C10.7697 8.84164 11.0025 8.3022 11.1336 7.71387C11.7177 5.09442 10.0676 2.4975 7.44817 1.91348C6.81669 1.77269 6.18652 1.76174 5.58555 1.8629C6.09223 2.05605 6.51284 2.39504 6.80898 2.81942ZM2.00407 4.56325C1.84977 4.88735 1.72922 5.23373 1.64779 5.59895C1.06377 8.21839 2.71381 10.8153 5.33325 11.3993C6.76214 11.7179 8.18433 11.3717 9.27674 10.566L8.58816 9.82912C7.73393 10.4205 6.64487 10.6672 5.55086 10.4233C3.53236 9.97325 2.23864 8.01825 2.58711 6.00213C2.25779 5.59634 2.0503 5.09603 2.00407 4.56325Z" fill="#1B1B1B"/>
<path fill-rule="evenodd" clip-rule="evenodd" d="M3.08619 5.01404C3.28602 5.56455 3.75407 6.00448 4.36806 6.14138C5.32403 6.35452 6.27178 5.75233 6.48492 4.79636C6.64179 4.09279 6.35702 3.39367 5.81462 2.98858C5.81496 2.9882 5.81531 2.98782 5.81565 2.98744C5.19697 2.51332 5.37152 1.92788 5.58384 1.85516L5.7724 1.83032C7.0217 2.32167 7.76226 3.66257 7.46096 5.01397C7.12763 6.50899 5.64547 7.45074 4.15045 7.11741C2.92058 6.84321 2.06514 5.79153 1.98596 4.59482L1.99027 4.59989C2.16403 4.30158 2.80933 4.45293 3.08619 5.01404Z" fill="#1B1B1B"/>
<path fill-rule="evenodd" clip-rule="evenodd" d="M20.1051 24.0718C19.9647 24.0586 19.8237 24.0376 19.6824 24.0085C17.5947 23.5786 16.2509 21.5376 16.6809 19.45C16.764 19.0464 16.9073 18.6706 17.0995 18.3301L16.3509 17.6335C16.0469 18.1147 15.823 18.6579 15.7014 19.2483C15.16 21.8768 16.8521 24.4466 19.4807 24.988C20.1144 25.1185 20.7446 25.1192 21.3439 25.0083C20.8341 24.8234 20.408 24.4913 20.1051 24.0718ZM24.881 22.2501C25.03 21.9235 25.1449 21.5752 25.2204 21.2087C25.7617 18.5801 24.0697 16.0104 21.4411 15.469C20.0072 15.1737 18.5909 15.543 17.5117 16.3663L18.2122 17.0919C19.0567 16.4868 20.1416 16.2223 21.2394 16.4484C23.265 16.8656 24.5903 18.7993 24.2746 20.8208C24.6105 21.2212 24.8261 21.7181 24.881 22.2501Z" fill="#1B1B1B"/>
<path fill-rule="evenodd" clip-rule="evenodd" d="M23.7913 21.8169C23.5825 21.2697 23.1074 20.8374 22.4913 20.7105C21.532 20.513 20.5941 21.1305 20.3966 22.0898C20.2511 22.7958 20.5472 23.4902 21.0961 23.8864C21.0958 23.8868 21.0955 23.8872 21.0951 23.8876C21.7214 24.3516 21.5564 24.9398 21.3453 25.0159L21.1572 25.0438C19.9001 24.5729 19.1378 23.2442 19.4171 21.8881C19.7261 20.3878 21.1927 19.4221 22.693 19.7311C23.9271 19.9853 24.7996 21.0229 24.8982 22.2182L24.8938 22.2132C24.7249 22.5143 24.0772 22.3734 23.7913 21.8169Z" fill="#1B1B1B"/>
<path fill-rule="evenodd" clip-rule="evenodd" d="M8.13866 10.8477L16.546 19.255L17.0351 18.3299L8.92633 10.2211L8.13866 10.8477ZM9.97922 8.84333L18.0916 16.9557L19.1626 16.6125L10.5352 7.98513L9.97922 8.84333Z" fill="#1B1B1B"/>
<circle cx="8.86095" cy="8.94786" r="0.333604" fill="#1B1B1B"/>
<circle cx="18.1656" cy="18.1275" r="0.333604" fill="#1B1B1B"/>
</svg>
